X:0972
M:C
L:1/8
Q:1/4=120
K:D
d|A>Bd>e f/e/d/c/ d2| A>Bd>e    eEG<B | ABde    (f/e/).d/.c/ (.d>.B)|A<Fd>G       AD`F  :|
  AFd>F  fFAF       | Adc<d     e>EG<B|(AE)(f>d) e>c```````````d>B  |c>d c/d/e/c/ d>dF<d|]

